icons/unity-panel/24x24/panel/unity-battery-charged.svg

<svg xmlns="http://www.w3.org/2000/svg" viewBox="0 0 24 24"><path d="M16 3c-1.108 0-2 .425-2 1.533V5h-1c-1.108 0-2 .892-2 2v12c0 1.108.892 2 2 2h7c1.108 0 2-.892 2-2V7c0-1.108-.892-2-2-2h-1v-.385C19 3.507 18.108 3 17 3h-1zm-3 3h7c.554 0 1 .446 1 1v12c0 .554-.446 1-1 1h-7c-.554 0-1-.446-1-1V7c0-.554.446-1 1-1zm0 1v12h7V7h-7z" fill="#F9F9F9"/><path d="m4 21 4-9H6V5l-4 9h2z" opacity=".5" style="fill:#f9f9f9111;fill-opacity:1"/></svg>

<?xml version="1.0" encoding="UTF-8" standalone="no"?>
<svg
   xmlns:dc="http://purl.org/dc/elements/1.1/"
   xmlns:cc="http://creativecommons.org/ns#"
   xmlns:rdf="http://www.w3.org/1999/02/22-rdf-syntax-ns#"
   xmlns:svg="http://www.w3.org/2000/svg"
   xmlns="http://www.w3.org/2000/svg"
   xmlns:sodipodi="http://sodipodi.sourceforge.net/DTD/sodipodi-0.dtd"
   xmlns:inkscape="http://www.inkscape.org/namespaces/inkscape"
   version="1.1"
   viewBox="0 0 24 24"
   id="svg12"
   sodipodi:docname="unity-battery-charged.svg"
   inkscape:version="1.0.2 (e86c870879, 2021-01-15)">
  <metadata
     id="metadata18">
    <rdf:RDF>
      <cc:Work
         rdf:about="">
        <dc:format>image/svg+xml</dc:format>
        <dc:type
           rdf:resource="http://purl.org/dc/dcmitype/StillImage" />
      </cc:Work>
    </rdf:RDF>
  </metadata>
  <defs
     id="defs16" />
  <sodipodi:namedview
     pagecolor="#ffffff"
     bordercolor="#666666"
     borderopacity="1"
     objecttolerance="10"
     gridtolerance="10"
     guidetolerance="10"
     inkscape:pageopacity="0"
     inkscape:pageshadow="2"
     inkscape:window-width="1301"
     inkscape:window-height="744"
     id="namedview14"
     showgrid="false"
     inkscape:zoom="24.833333"
     inkscape:cx="12"
     inkscape:cy="12"
     inkscape:window-x="65"
     inkscape:window-y="24"
     inkscape:window-maximized="1"
     inkscape:current-layer="svg12" />
  <g
     fill="#F9F9F9"
     id="g8">
    <path
       id="path2"
       d="M 16 3 C 14.892 3 14 3.4251831 14 4.5332031 L 14 5 L 13 5 C 11.892 5 11 5.892 11 7 L 11 19 C 11 20.108 11.892 21 13 21 L 20 21 C 21.108 21 22 20.108 22 19 L 22 7 C 22 5.892 21.108 5 20 5 L 19 5 L 19 4.6152344 C 19 3.5072344 18.108 3 17 3 L 16 3 z M 13 6 L 20 6 C 20.554 6 21 6.446 21 7 L 21 19 C 21 19.554 20.554 20 20 20 L 13 20 C 12.446 20 12 19.554 12 19 L 12 7 C 12 6.446 12.446 6 13 6 z M 13 7 L 13 19 L 20 19 L 20 7 L 13 7 z " />
  </g>
  <path
     d="m4 21 4-9h-2v-7l-4 9h2z"
     enable-background="new"
     opacity=".5"
     stroke-width="1.4546"
     id="path10"
     style="fill:#F9F9F9111;fill-opacity:1" />
</svg>
